src/assets/icons/numbers,simple,05.svg

<svg width="48" height="48" viewBox="0 0 48 48" fill="none" xmlns="http://www.w3.org/2000/svg">
<rect opacity="0.2" x="5" y="5" width="38" height="38" rx="4" fill="black"/>
<path d="M24.0716 36.3082C29.0914 36.3082 32.5041 33.0387 32.4931 28.4812C32.5041 24.1658 29.4877 21.0614 25.4256 21.0614C23.4441 21.0614 21.7377 21.8871 20.9451 22.9989H20.813L21.3965 17.3516H31.2491V13.4545H17.4664L16.3986 25.3438L20.6369 26.1033C21.3304 25.1676 22.6735 24.5842 24.0055 24.5842C26.2733 24.5952 27.9025 26.2354 27.9025 28.6023C27.9025 30.9471 26.3063 32.5653 24.0716 32.5653C22.1781 32.5653 20.6479 31.3764 20.5378 29.6261H15.9142C16.0023 33.5231 19.4039 36.3082 24.0716 36.3082Z" fill="black"/>
</svg>

<svg xmlns="http://www.w3.org/2000/svg" width="48" height="48" fill="none" viewBox="0 0 48 48">
  <rect width="38" height="38" x="5" y="5" fill="#000" opacity=".2" rx="4"/>
  <path fill="#000" d="M24.072 36.308c5.02 0 8.432-3.27 8.421-7.827.011-4.315-3.005-7.42-7.067-7.42-1.982 0-3.688.826-4.48 1.938h-.133l.584-5.647h9.852v-3.898H17.466L16.4 25.345l4.238.76c.693-.936 2.037-1.52 3.369-1.52 2.267.011 3.896 1.651 3.896 4.018 0 2.345-1.596 3.963-3.83 3.963-1.894 0-3.424-1.189-3.534-2.939h-4.624c.088 3.897 3.49 6.682 8.158 6.682z"/>
</svg>
